src/assets/icons/fa/dashcube.svg

<?xml version="1.0" encoding="utf-8"?>
<svg width="1792" height="1792" viewBox="0 0 1792 1792" xmlns="http://www.w3.org/2000/svg"><path d="M128 680q0-131 91.5-226.5t222.5-95.5h742l352-358v1470q0 132-91.5 227t-222.5 95h-780q-131 0-222.5-95t-91.5-227v-790zm1232 754l-176-180v-425q0-46-32-79t-78-33h-484q-46 0-78 33t-32 79v492q0 46 32.5 79.5t77.5 33.5h770z"/></svg>

<svg width="1792" height="1792" xmlns="http://www.w3.org/2000/svg"><path d="M128 680q0-131 91.5-226.5T442 358h742L1536 0v1470q0 132-91.5 227t-222.5 95H442q-131 0-222.5-95T128 1470V680zm1232 754l-176-180V829q0-46-32-79t-78-33H590q-46 0-78 33t-32 79v492q0 46 32.5 79.5T590 1434h770z"/></svg>
